Papirus/24x24/apps/borderlands-2.svg

<svg xmlns="http://www.w3.org/2000/svg" width="24" height="24" version="1">
 <rect style="fill:#aa3131" width="20" height="20" x="2" y="2" rx="10" ry="10"/>
 <path style="opacity:0.1;fill:#ffffff" d="M 12,2 C 6.46,2 2,6.46 2,12 2,12.084 2.004,12.1665 2.00585,12.25 2.1382,6.827 6.544,2.5 11.99985,2.5 c 5.45585,0 9.862,4.32695 9.994,9.75 0.002,-0.08343 0.0059,-0.166065 0.0059,-0.25 0,-5.54 -4.46,-10 -10,-10 z"/>
 <path style="opacity:0.2" d="M 2.00585,12.25 C 2.0038,12.3335 2,12.416 2,12.5 c 0,5.54 4.46,10 10,10 5.54,0 10,-4.46 10,-10 0,-0.08394 -0.0038,-0.16657 -0.0059,-0.25 -0.132,5.423 -4.538,9.75 -9.994,9.75 -5.456,0 -9.862,-4.327 -9.994,-9.75 z"/>
 <path style="opacity:0.2" d="M 13.659765,4.6759443 C 12.815231,4.4949368 11.932814,4.4526654 11.070805,4.5534288 9.819925,4.6996315 8.608743,5.146176 7.557466,5.8485575 6.518242,6.542826 5.664877,7.4581115 5.049885,8.5369655 4.8142549,8.950299 4.6133358,9.3913045 4.4529037,9.8484775 4.3407577,10.16837 4.2383658,10.538478 4.1682017,10.875068 c -0.3647592,1.753563 -0.1329477,3.561906 0.6631495,5.16961 0.057501,0.11607 0.059226,0.119331 0.064281,0.116524 0.00552,-0.0024 0.031589,-0.03983 0.4019923,-0.562623 1.394999,-1.968941 3.2791095,-4.654534 5.4888785,-7.821337 0.673448,-0.9650665 0.860115,-1.2320275 0.89391,-1.2825795 0.209591,-0.3136285 0.424003,-0.544074 0.665262,-0.71458 0.05788,-0.040815 0.199774,-0.121956 0.262792,-0.1501755 0.290327,-0.130073 0.597607,-0.1683465 0.942314,-0.1161505 0.09526,0.01442 0.156185,0.027515 0.264684,0.056582 0.108499,0.02906 0.167836,0.04827 0.257522,0.083303 0.324632,0.127096 0.572536,0.314097 0.758867,0.5718545 0.04045,0.05596 0.12285,0.197161 0.152476,0.2614155 0.123659,0.268259 0.19404,0.574836 0.218745,0.951383 0.0097,0.14613 0.145754,1.7045105 0.248977,2.8520005 0.160703,1.786371 0.315814,3.439181 0.580408,6.176776 0.13381,1.384046 0.213569,2.216938 0.249222,2.598075 0.0083,0.08963 0.01603,0.165252 0.0171,0.167858 0.0032,0.0063 0.0052,0.0057 0.06862,-0.03509 0.384955,-0.247581 0.77058,-0.547972 1.111808,-0.866139 0.879724,-0.820227 1.556641,-1.828875 1.987615,-2.961373 0.105977,-0.278631 0.176532,-0.498278 0.25787,-0.801748 0.04934,-0.184111 0.06978,-0.281118 0.104702,-0.436966 0.319953,-1.5229 0.188237,-3.096363 -0.381311,-4.5498475 -0.232015,-0.591993 -0.54206,-1.168082 -0.909253,-1.689212 C 17.544184,6.481093 16.134963,5.437431 14.499872,4.9019427 14.238717,4.8164394 13.931183,4.7339351 13.659768,4.6759481 Z M 13.441312,6.8059475 C 12.836339,6.7430845 12.448774,7.170397 12.118002,7.620204 10.551924,10.331806 8.8825215,13.268487 7.1883935,16.291263 6.701233,17.160471 6.223807,18.015719 6.222039,18.022314 c -0.00145,0.0053 0.019435,0.02872 0.1026165,0.112471 0.954764,0.962444 2.1357875,1.662548 3.440647,2.040749 0.1630805,0.0471 0.160017,0.04612 0.3136795,0.08403 0.355082,0.0872 0.665679,0.144962 1.005719,0.185381 1.010829,0.120145 2.02516,0.0434 3.010428,-0.227687 0.03907,-0.01075 0.07189,-0.02171 0.07312,-0.02339 8.5e-4,-0.0032 0.0066,-0.263389 0.01821,-1.108482 0.0452,-3.299375 0.07049,-6.715176 0.07423,-9.9914985 -0.05329,-0.9870195 -0.0057,-2.0148445 -0.819376,-2.287947 z"/>
 <path style="fill:#f7b400" d="M 13.659765,4.1759437 C 12.815231,3.9949363 11.932814,3.9526648 11.070805,4.0534282 9.819925,4.1996309 8.608743,4.6461754 7.557466,5.348557 6.518242,6.0428255 5.664877,6.958111 5.049885,8.036965 4.8142549,8.4502985 4.6133358,8.891304 4.4529037,9.348477 c -0.112146,0.3198925 -0.2145379,0.69 -0.284702,1.02659 -0.3647592,1.753563 -0.1329477,3.561906 0.6631495,5.169611 0.057501,0.116069 0.059226,0.11933 0.064281,0.116524 0.00552,-0.0024 0.031589,-0.03982 0.4019923,-0.562624 1.394999,-1.968941 3.2791095,-4.654534 5.4888785,-7.8213365 0.673448,-0.9650665 0.860115,-1.2320275 0.89391,-1.2825795 0.209591,-0.3136285 0.424003,-0.544074 0.665262,-0.71458 0.05788,-0.040815 0.199774,-0.121956 0.262792,-0.1501755 0.290327,-0.1300729 0.597607,-0.1683467 0.942314,-0.1161505 0.09526,0.01442 0.156185,0.027515 0.264684,0.056582 0.108499,0.02906 0.167836,0.04827 0.257522,0.083304 0.324632,0.127096 0.572536,0.314097 0.758867,0.5718545 0.04045,0.05596 0.12285,0.197161 0.152476,0.2614155 0.123659,0.268259 0.19404,0.574836 0.218745,0.951383 0.0097,0.14613 0.145754,1.7045105 0.248977,2.852 0.160703,1.786371 0.315814,3.439181 0.580408,6.176777 0.13381,1.384047 0.213569,2.216938 0.249222,2.598075 0.0083,0.08963 0.01603,0.165252 0.0171,0.167859 0.0032,0.0063 0.0052,0.0057 0.06862,-0.03509 0.384955,-0.247581 0.77058,-0.547973 1.111808,-0.866139 0.879724,-0.820227 1.556641,-1.828875 1.987615,-2.961373 0.105977,-0.278632 0.176532,-0.498278 0.25787,-0.80175 0.04934,-0.18411 0.06978,-0.281117 0.104702,-0.436966 C 20.14935,12.108789 20.017634,10.535326 19.448086,9.081841 19.216071,8.489847 18.906026,7.913758 18.538833,7.392628 17.544184,5.9810925 16.134963,4.9374305 14.499872,4.4019421 14.238717,4.3164388 13.931183,4.2339345 13.659768,4.1759475 Z M 13.441312,6.305947 C 12.836339,6.243084 12.448774,6.6703965 12.118002,7.1202035 10.551924,9.831805 8.8825215,12.768487 7.1883935,15.791262 6.701233,16.66047 6.223807,17.515718 6.222039,17.522313 c -0.00145,0.0053 0.019435,0.02872 0.1026165,0.112471 0.954764,0.962444 2.1357875,1.662548 3.440647,2.04075 0.1630805,0.0471 0.160017,0.04612 0.3136795,0.08403 0.355082,0.0872 0.665679,0.144962 1.005719,0.185381 1.010829,0.120145 2.02516,0.0434 3.010428,-0.227687 0.03907,-0.01075 0.07189,-0.02171 0.07312,-0.02339 8.5e-4,-0.0032 0.0066,-0.263389 0.01821,-1.108482 0.0452,-3.299375 0.07049,-6.715176 0.07423,-9.991498 -0.05329,-0.9870195 -0.0057,-2.0148445 -0.819376,-2.287947 z"/>
 <path style="opacity:0.2;fill:#ffffff" d="m 11.720703,4.0048828 c -0.217142,0.00738 -0.433911,0.023638 -0.649414,0.048828 C 9.820409,4.1999135 8.608894,4.6462511 7.557617,5.348633 6.518393,6.0429015 5.6647965,6.9582555 5.0498045,8.0371095 4.8141746,8.450443 4.6135571,8.89146 4.453125,9.348633 4.340979,9.6685255 4.2381329,10.03841 4.1679687,10.375 4.0435089,10.973335 3.9936669,11.577767 4.0068359,12.178711 4.0246947,11.743303 4.0779887,11.307575 4.1679687,10.875 4.2381329,10.53841 4.340979,10.168525 4.453125,9.848633 4.6135571,9.39146 4.8141746,8.950443 5.0498045,8.5371095 5.6647965,7.4582555 6.518393,6.5429015 7.557617,5.848633 8.608894,5.1462515 9.820409,4.6999136 11.071289,4.5537109 c 0.862009,-0.1007634 1.744334,-0.058937 2.588867,0.1220703 0.271416,0.057987 0.578689,0.1410592 0.839844,0.2265625 1.635091,0.5354883 3.044414,1.5786988 4.039062,2.9902343 0.367195,0.52113 0.677167,1.0974595 0.90918,1.689453 0.334455,0.853528 0.514254,1.748651 0.543945,2.650391 C 20.024473,11.162426 19.84451,10.093308 19.448242,9.082031 19.216229,8.4900375 18.906257,7.913708 18.539062,7.392578 17.544414,5.9810425 16.135091,4.9378321 14.5,4.4023437 14.238845,4.3168404 13.931572,4.2337682 13.660156,4.1757812 13.026756,4.0400256 12.372131,3.9827468 11.720703,4.0048828 Z m 1.503907,2.2998047 c -0.48399,0.045825 -0.81702,0.4218485 -1.106446,0.8154295 -1.566078,2.7116015 -3.2355595,5.648123 -4.9296875,8.670899 -0.4871605,0.869207 -0.965029,1.724849 -0.966797,1.731445 -0.00145,0.0053 0.01936,0.02856 0.1025395,0.112304 0.02403,0.02423 0.049905,0.04642 0.074218,0.07031 0.1310205,-0.236479 0.3921225,-0.704086 0.790039,-1.414063 1.694128,-3.022775 3.36361,-5.959296 4.929688,-8.670898 0.330773,-0.449807 0.71827,-0.877316 1.323242,-0.814453 0.802645,0.269385 0.767352,1.2735125 0.817383,2.248047 2.64e-4,-0.1516495 0.0018,-0.3088795 0.0019,-0.459961 -0.05329,-0.9870195 -0.0056,-2.0149835 -0.819336,-2.288086 -0.07562,-0.00786 -0.147655,-0.00753 -0.216796,-10e-4 z"/>
</svg>

<svg xmlns="http://www.w3.org/2000/svg" width="24" height="24" version="1">
 <circle style="opacity:0.2" cx="-12" cy="12.5" r="10" transform="scale(-1,1)"/>
 <circle style="fill:#aa3131" cx="-12" cy="12" r="10" transform="scale(-1,1)"/>
 <path style="opacity:0.2" d="M 13.66,4.676 C 12.815,4.495 11.933,4.4528 11.071,4.5535 9.82,4.6997 8.609,5.1463 7.557,5.8487 6.518,6.5429 5.665,7.4582 5.05,8.5371 4.814,8.9504 4.613,9.3914 4.453,9.8486 4.341,10.168 4.238,10.538 4.168,10.875 3.803,12.629 4.035,14.437 4.831,16.045 L 4.896,16.161 11.68,6.4948 C 11.89,6.1811 12.104,5.9507 12.346,5.7802 12.404,5.7394 12.545,5.6582 12.608,5.63 12.899,5.4999 13.206,5.4617 13.551,5.5139 13.776,5.548 13.92,5.5943 14.073,5.6537 14.398,5.7808 14.646,5.9678 14.832,6.2256 14.872,6.2816 14.955,6.4228 14.984,6.487 15.108,6.7553 15.178,7.0618 15.203,7.4384 L 16.299,19.233 16.367,19.198 C 16.752,18.95 17.138,18.65 17.479,18.332 18.359,17.512 19.036,16.503 19.467,15.37 19.616,14.979 19.755,14.466 19.829,14.132 20.149,12.609 20.018,11.035 19.448,9.5819 19.216,8.9899 18.906,8.4139 18.539,7.8927 17.544,6.4812 16.135,5.4375 14.5,4.902 14.239,4.8165 13.931,4.734 13.66,4.676 Z M 13.441,6.806 C 12.836,6.7432 12.449,7.1705 12.118,7.6203 L 6.222,18.022 6.325,18.135 C 7.279,19.097 8.46,19.797 9.765,20.176 10.122,20.279 10.58,20.386 11.085,20.445 12.096,20.565 13.11,20.488 14.095,20.217 L 14.168,20.194 14.261,9.094 C 14.207,8.107 14.255,7.0791 13.441,6.806 Z"/>
 <path style="fill:#f7b400" d="M 13.66,4.1759 C 12.815,3.9949 11.933,3.9527 11.071,4.0534 9.82,4.1996 8.609,4.6462 7.557,5.3486 6.518,6.0428 5.665,6.9581 5.05,8.037 4.814,8.4503 4.613,8.8913 4.453,9.3485 4.341,9.6684 4.238,10.038 4.168,10.375 3.803,12.129 4.035,13.937 4.831,15.545 L 4.896,15.661 11.68,5.9947 C 11.89,5.681 12.104,5.4506 12.346,5.2801 12.404,5.2393 12.545,5.1581 12.608,5.1299 12.899,4.9998 13.206,4.9616 13.551,5.0138 13.776,5.0479 13.92,5.0942 14.073,5.1536 14.398,5.2807 14.646,5.4677 14.832,5.7255 14.872,5.7815 14.955,5.9227 14.984,5.9869 15.108,6.2552 15.178,6.5617 15.203,6.9383 L 16.299,18.733 16.367,18.698 C 16.752,18.45 17.138,18.15 17.479,17.832 18.359,17.012 19.036,16.003 19.467,14.87 19.616,14.479 19.755,13.966 19.829,13.632 20.149,12.109 20.018,10.535 19.448,9.0818 19.216,8.4898 18.906,7.9138 18.539,7.3926 17.544,5.9811 16.135,4.9374 14.5,4.4019 14.239,4.3164 13.931,4.2339 13.66,4.1759 Z M 13.441,6.3059 C 12.836,6.2431 12.449,6.6704 12.118,7.1202 L 6.222,17.522 6.325,17.635 C 7.279,18.597 8.46,19.297 9.765,19.676 10.122,19.779 10.58,19.886 11.085,19.945 12.096,20.065 13.11,19.988 14.095,19.717 L 14.168,19.694 14.261,8.5939 C 14.207,7.6069 14.255,6.579 13.441,6.3059 Z"/>
 <path style="opacity:0.1;fill:#ffffff" d="M 12,2 A 10,10 0 0 1 22,12 10,10 0 0 1 21.99,12.293 10,10 0 0 0 12,2.5 10,10 0 0 0 2.01,12.207 10,10 0 0 1 2,12 10,10 0 0 1 12,2 Z"/>
 <path style="opacity:0.2;fill:#ffffff" d="M 11.721,4.0039 C 12.372,3.9818 13.026,4.04 13.66,4.1758 13.931,4.2338 14.239,4.3168 14.5,4.4023 16.135,4.9378 17.544,5.9811 18.539,7.3926 18.906,7.9138 19.215,8.49 19.447,9.082 19.879,10.183 20.058,11.353 19.98,12.518 19.983,11.519 19.817,10.525 19.447,9.582 19.215,8.99 18.906,8.4138 18.539,7.8926 17.544,6.4811 16.135,5.4378 14.5,4.9023 14.239,4.8168 13.931,4.7338 13.66,4.6758 12.815,4.4948 11.932,4.452 11.07,4.5527 9.819,4.6989 8.609,5.1472 7.557,5.8496 6.518,6.5438 5.666,7.4582 5.051,8.5371 4.815,8.9504 4.613,9.3905 4.453,9.8477 4.341,10.167 4.238,10.538 4.168,10.875 4.078,11.308 4.026,11.744 4.008,12.18 3.995,11.578 4.043,10.974 4.168,10.375 4.238,10.038 4.341,9.6676 4.453,9.3477 4.613,8.8905 4.815,8.4504 5.051,8.0371 5.666,6.9582 6.518,6.0419 7.557,5.3477 8.609,4.6453 9.819,4.1989 11.07,4.0527 11.286,4.0276 11.504,4.0113 11.721,4.0039 Z M 13.441,6.3066 C 14.255,6.5797 14.207,7.6068 14.26,8.5938 L 14.256,9.0195 C 14.208,8.056 14.235,7.0728 13.441,6.8066 12.836,6.7438 12.448,7.1713 12.117,7.6211 L 6.402,17.705 C 6.377,17.68 6.349,17.66 6.324,17.635 L 6.223,17.521 12.117,7.1211 C 12.448,6.6713 12.836,6.2438 13.441,6.3066 Z"/>
</svg>
